packages/sources/assets/src/assets/flag-tg.svg

<svg width="28" height="20" viewBox="0 0 28 20" fill="none" xmlns="http://www.w3.org/2000/svg">
<rect width="28" height="20" rx="2" fill="white"/>
<mask id="mask0_503_3879" style="mask-type:alpha" maskUnits="userSpaceOnUse" x="0" y="0" width="28" height="20">
<rect width="28" height="20" rx="2" fill="white"/>
</mask>
<g mask="url(#mask0_503_3879)">
<rect width="28" height="20" fill="#FFD44D"/>
<path fill-rule="evenodd" clip-rule="evenodd" d="M12 0H28V4H12V0ZM12 8H28V12H12V8ZM28 16H0V20H28V16Z" fill="#159A74"/>
<rect width="12" height="12" fill="#ED1F45"/>
<path fill-rule="evenodd" clip-rule="evenodd" d="M6 7.56L3.64886 9.23607L4.51635 6.48207L2.19577 4.76393L5.08306 4.73793L6 2L6.91694 4.73793L9.80423 4.76393L7.48365 6.48207L8.35114 9.23607L6 7.56Z" fill="white"/>
</g>
</svg>

<svg width="28" height="20" fill="none" xmlns="http://www.w3.org/2000/svg"><rect width="28" height="20" rx="2" fill="#fff"/><mask id="a" style="mask-type:alpha" maskUnits="userSpaceOnUse" x="0" y="0" width="28" height="20"><rect width="28" height="20" rx="2" fill="#fff"/></mask><g mask="url(#a)"><path fill="#FFD44D" d="M0 0h28v20H0z"/><path fill-rule="evenodd" clip-rule="evenodd" d="M12 0h16v4H12V0Zm0 8h16v4H12V8Zm16 8H0v4h28v-4Z" fill="#159A74"/><path fill="#ED1F45" d="M0 0h12v12H0z"/><path fill-rule="evenodd" clip-rule="evenodd" d="M6 7.56 3.649 9.236l.867-2.754-2.32-1.718 2.887-.026L6 2l.917 2.738 2.887.026-2.32 1.718.867 2.754L6 7.56Z" fill="#fff"/></g></svg>
